svgs/dropeee.svg

<svg width="192" height="192" viewBox="0 0 192 192" fill="none" xmlns="http://www.w3.org/2000/svg">
<path d="M140.952 52.7164L141.737 38.5213C142.095 32.0333 137.359 26.4696 131.158 26.0946L63.7896 22.02C57.5885 21.6449 52.271 26.6005 51.9125 33.0885L51.1282 47.2836M140.952 52.7164L140.168 66.9115C139.81 73.3995 134.492 78.3551 128.291 77.98L113.69 77.0969M140.952 52.7164C154.673 54.8078 162.407 53.6003 170 53.5M51.1282 47.2836L50.3439 61.4787C49.9854 67.9667 54.7218 73.5304 60.9229 73.9054L113.69 77.0969M51.1282 47.2836C39.9969 45.6526 34.2146 45.9143 22 41.5M113.69 77.0969C113.69 125 109.704 145 104.222 170" stroke="black" stroke-width="12" stroke-miterlimit="16" stroke-linecap="round" stroke-linejoin="round"/>
<path d="M86 117C86 125.837 78.8366 133 70 133M86 117C86 108.163 78.8366 101 70 101C61.1634 101 54 108.163 54 117C54 125.837 61.1634 133 70 133M86 117C99.0301 115.806 105.655 116.671 116 121.5M70 133L66.3108 154M63.5 170L66.3108 154M66.3108 154C83.9936 157.647 93.883 156.623 111.5 152.5" stroke="black" stroke-width="12" stroke-linecap="round" stroke-linejoin="round"/>
<circle cx="97" cy="50" r="5" stroke="black" stroke-width="10"/>
</svg>

<svg xmlns="http://www.w3.org/2000/svg" width="192" height="192" fill="none" viewBox="0 0 192 192"><path stroke="#000" stroke-linecap="round" stroke-linejoin="round" stroke-miterlimit="16" stroke-width="12" d="m140.952 52.716.785-14.195c.358-6.488-4.378-12.051-10.579-12.426L63.79 22.02c-6.201-.375-11.519 4.58-11.877 11.069l-.785 14.195m89.824 5.432-.784 14.196c-.358 6.487-5.676 11.443-11.877 11.068l-14.601-.883m27.262-24.38c13.721 2.09 21.455.883 29.048.783M51.128 47.284l-.784 14.195c-.359 6.488 4.378 12.051 10.579 12.426l52.767 3.192M51.128 47.284C39.997 45.653 34.215 45.914 22 41.5m91.69 35.597c0 47.903-3.986 67.903-9.468 92.903"/><path stroke="#000" stroke-linecap="round" stroke-linejoin="round" stroke-width="12" d="M86 117c0 8.837-7.163 16-16 16m16-16c0-8.837-7.163-16-16-16s-16 7.163-16 16 7.163 16 16 16m16-16c13.03-1.194 19.655-.329 30 4.5M70 133l-3.69 21m-2.81 16 2.81-16m0 0c17.684 3.647 27.573 2.623 45.19-1.5"/><circle cx="97" cy="50" r="5" stroke="#000" stroke-width="10"/></svg>
